data/icons/image-adjust-color-symbolic.svg

<?xml version='1.0' encoding='UTF-8' standalone='no'?>
<!-- Created with Inkscape (http://www.inkscape.org/) -->

<svg xmlns:cc='http://creativecommons.org/ns#' xmlns:dc='http://purl.org/dc/elements/1.1/' sodipodi:docname='image-adjust-color-symbolic.svg' inkscape:export-filename='/home/sam/dev/RESOURCES/gnome-icon-theme-symbolic/src/gnome-stencils.png' inkscape:export-xdpi='90' inkscape:export-ydpi='90' height='16' id='svg7384' xmlns:inkscape='http://www.inkscape.org/namespaces/inkscape' xmlns:osb='http://www.openswatchbook.org/uri/2009/osb' xmlns:rdf='http://www.w3.org/1999/02/22-rdf-syntax-ns#' xmlns:sodipodi='http://sodipodi.sourceforge.net/DTD/sodipodi-0.dtd' xmlns:svg='http://www.w3.org/2000/svg' version='1.1' inkscape:version='0.91 r13725' width='16' xmlns='http://www.w3.org/2000/svg'>
  <metadata id='metadata90'>
    <rdf:RDF>
      <cc:Work rdf:about=''>
        <dc:format>image/svg+xml</dc:format>
        <dc:type rdf:resource='http://purl.org/dc/dcmitype/StillImage'/>
        <dc:title>Gnome Symbolic Icon Theme</dc:title>
      </cc:Work>
    </rdf:RDF>
  </metadata>
  <sodipodi:namedview inkscape:bbox-nodes='true' inkscape:bbox-paths='true' bordercolor='#666666' borderopacity='1' inkscape:current-layer='svg7384' inkscape:cx='-147.79725' inkscape:cy='-173.22876' gridtolerance='10' inkscape:guide-bbox='true' guidetolerance='10' id='namedview88' inkscape:object-nodes='true' inkscape:object-paths='false' objecttolerance='10' pagecolor='#3a3b39' inkscape:pageopacity='1' inkscape:pageshadow='2' showborder='false' showgrid='false' showguides='true' inkscape:snap-bbox='true' inkscape:snap-bbox-midpoints='false' inkscape:snap-global='true' inkscape:snap-grids='true' inkscape:snap-nodes='false' inkscape:snap-others='false' inkscape:snap-to-guides='true' inkscape:window-height='1376' inkscape:window-maximized='1' inkscape:window-width='2560' inkscape:window-x='0' inkscape:window-y='27' inkscape:zoom='1'>
    <inkscape:grid dotted='false' empspacing='2' enabled='true' id='grid4866' originx='178' originy='-112' snapvisiblegridlinesonly='true' spacingx='1px' spacingy='1px' type='xygrid' visible='true'/>
  </sodipodi:namedview>
  <title id='title9167'>Gnome Symbolic Icon Theme</title>
  <defs id='defs7386'>
    <linearGradient gradientTransform='matrix(-2.7365795,0.28202934,-0.18908311,-0.99988321,239.54008,-879.45557)' id='linearGradient19282' osb:paint='solid'>
      <stop id='stop19284' offset='0' style='stop-color:#666666;stop-opacity:1;'/>
    </linearGradient>
  </defs>
  
  <path inkscape:connector-curvature='0' d='M 8,1 C 5.7971778,1 4,2.7971778 4,5 4,7.2028222 5.7971778,9 8,9 10.202822,9 12,7.2028222 12,5 12,2.7971778 10.202822,1 8,1 Z M 8,2.0664062 C 9.6263526,2.0664063 10.933594,3.3736474 10.933594,5 10.933594,6.6263526 9.6263526,7.9335938 8,7.9335938 6.3736474,7.9335938 5.0664062,6.6263526 5.0664062,5 5.0664062,3.3736474 6.3736474,2.0664062 8,2.0664062 Z' id='circle15868' style='color:#000000;font-style:normal;font-variant:normal;font-weight:normal;font-stretch:normal;font-size:medium;line-height:normal;font-family:sans-serif;text-indent:0;text-align:start;text-decoration:none;text-decoration-line:none;text-decoration-style:solid;text-decoration-color:#000000;letter-spacing:normal;word-spacing:normal;text-transform:none;direction:ltr;block-progression:tb;writing-mode:lr-tb;baseline-shift:baseline;text-anchor:start;white-space:normal;clip-rule:nonzero;display:inline;overflow:visible;visibility:visible;opacity:1;isolation:auto;mix-blend-mode:normal;color-interpolation:sRGB;color-interpolation-filters:linearRGB;solid-color:#000000;solid-opacity:1;fill:#bebebe;fill-opacity:1;fill-rule:nonzero;stroke:none;stroke-width:1.06666684;stroke-linecap:round;stroke-linejoin:round;stroke-miterlimit:4;stroke-dasharray:none;stroke-dashoffset:0;stroke-opacity:1;marker:none;color-rendering:auto;image-rendering:auto;shape-rendering:auto;text-rendering:auto;enable-background:new'/>
  <path inkscape:connector-curvature='0' d='M 4,8 C 1.7971778,8 0,9.7971778 0,12 0,14.202822 1.7971778,16 4,16 6.2028222,16 8,14.202822 8,12 8,9.7971778 6.2028222,8 4,8 Z M 4,9.0664062 C 5.6263526,9.0664062 6.9335937,10.373647 6.9335938,12 6.9335938,13.626353 5.6263526,14.933594 4,14.933594 2.3736474,14.933594 1.0664062,13.626353 1.0664062,12 1.0664063,10.373647 2.3736474,9.0664063 4,9.0664062 Z' id='circle15870' style='color:#000000;font-style:normal;font-variant:normal;font-weight:normal;font-stretch:normal;font-size:medium;line-height:normal;font-family:sans-serif;text-indent:0;text-align:start;text-decoration:none;text-decoration-line:none;text-decoration-style:solid;text-decoration-color:#000000;letter-spacing:normal;word-spacing:normal;text-transform:none;direction:ltr;block-progression:tb;writing-mode:lr-tb;baseline-shift:baseline;text-anchor:start;white-space:normal;clip-rule:nonzero;display:inline;overflow:visible;visibility:visible;opacity:1;isolation:auto;mix-blend-mode:normal;color-interpolation:sRGB;color-interpolation-filters:linearRGB;solid-color:#000000;solid-opacity:1;fill:#bebebe;fill-opacity:1;fill-rule:nonzero;stroke:none;stroke-width:1.06666684;stroke-linecap:round;stroke-linejoin:round;stroke-miterlimit:4;stroke-dasharray:none;stroke-dashoffset:0;stroke-opacity:1;marker:none;color-rendering:auto;image-rendering:auto;shape-rendering:auto;text-rendering:auto;enable-background:new'/>
  <circle cx='11.999351' cy='11.999994' id='circle15872' r='3.9991465' style='color:#000000;display:inline;overflow:visible;visibility:visible;fill:#bebebe;fill-opacity:1;stroke:none;stroke-width:2.15384626;marker:none;enable-background:new'/>
  <circle cx='4.0001965' cy='11.999999' id='circle15874' r='3.4666672' style='color:#000000;display:inline;overflow:visible;visibility:visible;fill:#bebebe;fill-opacity:0.36403509;stroke:none;stroke-width:2.15384626;stroke-linecap:round;stroke-linejoin:round;stroke-miterlimit:4;stroke-dasharray:none;stroke-dashoffset:0;stroke-opacity:1;marker:none;enable-background:new'/>
</svg>

<svg height="16" width="16" xmlns="http://www.w3.org/2000/svg"><path style="fill:#241f31;fill-opacity:1" d="M8 1C5.797 1 4 2.797 4 5c0 2.203 1.797 4 4 4 2.203 0 4-1.797 4-4 0-2.203-1.797-4-4-4zm0 1.066A2.926 2.926 0 0 1 10.934 5 2.926 2.926 0 0 1 8 7.934 2.926 2.926 0 0 1 5.066 5 2.926 2.926 0 0 1 8 2.066zM4 8c-2.203 0-4 1.797-4 4 0 2.203 1.797 4 4 4 2.203 0 4-1.797 4-4 0-2.203-1.797-4-4-4zm4 4a3.999 3.999 0 0 0 3.998 3.998 3.999 3.999 0 0 0 4-3.998 3.999 3.999 0 0 0-4-3.998A3.999 3.999 0 0 0 8 12zM4 9.066A2.926 2.926 0 0 1 6.934 12 2.926 2.926 0 0 1 4 14.934 2.926 2.926 0 0 1 1.066 12 2.926 2.926 0 0 1 4 9.066z"/><circle cx="4" cy="12" r="3.467" style="fill:#241f31;fill-opacity:.34999999"/></svg>
